X:864
T:Doc Boyd's Jig
S:Dave Swarbrick
D:Swarbrick
Z:Nigel Gatherer
N:Transposed from C
L:1/8
M:6/8
K:D
d |: dcd AFA | dfb a2f | gbg Bcd | cec ABc |
     dcd AFA | dfb a2f | gec ABc |1 d3 ABc :| 2 d3-d2 ||
a |: b2b ba^g | aba a=gf | ggg gfe | a2f d2a |
     b2b ba^g | aba a=gf | gec ABc |1 d3 fga :| 2 d3-d2 ||
